packages/foundations/assets/icons/functional/images/environment/water_drop_20.svg

<svg width="20" height="20" viewBox="0 0 20 20" fill="none" xmlns="http://www.w3.org/2000/svg">
<g clip-path="url(#clip0_185_869)">
<path fill-rule="evenodd" clip-rule="evenodd" d="M10 17.9994C6.53001 17.9994 3.91376 15.3606 3.91376 11.8612C3.91376 10.4862 4.47313 8.98 5.57438 7.38562C5.57438 7.38562 7.74376 4.15625 8.73251 2.67188C9.01251 2.2525 9.48001 2.00125 9.98376 2H9.98688C10.3869 2 10.7644 2.15813 11.0438 2.43313C11.1288 2.49813 11.2044 2.5775 11.2669 2.67188C12.2575 4.15875 14.4325 7.39625 14.4325 7.39625C15.5269 8.98062 16.0863 10.4862 16.0863 11.8619C16.0863 15.3619 13.47 17.9994 10 17.9994ZM10 4.37563C8.91938 5.99188 7.22688 8.51125 7.22688 8.51125C6.35313 9.77562 5.91313 10.8994 5.91313 11.8606C5.91313 14.2587 7.63188 15.9994 9.99938 15.9994C12.3669 15.9994 14.0863 14.2587 14.0863 11.8606C14.0863 10.8994 13.6469 9.77625 12.78 8.52125C12.7738 8.51187 11.08 5.99188 10 4.37563Z" fill="#1A1C1F"/>
</g>
<defs>
<clipPath id="clip0_185_869">
<rect width="20" height="20" fill="white"/>
</clipPath>
</defs>
</svg>

<svg xmlns="http://www.w3.org/2000/svg" width="20" height="20" fill="none"><g clip-path="url(#a)"><path fill="#1A1C1F" fill-rule="evenodd" d="M10 18c-3.47 0-6.086-2.64-6.086-6.139 0-1.375.56-2.881 1.66-4.475 0 0 2.17-3.23 3.159-4.714.28-.42.747-.67 1.25-.672h.004c.4 0 .777.158 1.057.433q.128.098.223.239c.99 1.487 3.165 4.724 3.165 4.724 1.095 1.585 1.654 3.09 1.654 4.466 0 3.5-2.616 6.137-6.086 6.137m0-13.624C8.92 5.992 7.227 8.51 7.227 8.51c-.874 1.265-1.314 2.388-1.314 3.35 0 2.398 1.719 4.138 4.086 4.138s4.087-1.74 4.087-4.138c0-.962-.44-2.085-1.306-3.34-.006-.01-1.7-2.53-2.78-4.145" clip-rule="evenodd"/></g><defs><clipPath id="a"><path fill="#fff" d="M0 0h20v20H0z"/></clipPath></defs></svg>
